Sources/FrostedUI/Resources/Icons.xcassets/happyFacePlus32.imageset/happy-face-plus-32.svg

<svg width="32" height="32" viewBox="0 0 32 32" fill="none" xmlns="http://www.w3.org/2000/svg" data-fui-icon="true">
  <path
    d="M16 0C17.4522 2.75424e-06 18.8574 0.1885 20.1924 0.542969C20.5927 0.649281 20.8309 1.05965 20.7246 1.45996C20.6183 1.86028 20.2079 2.09846 19.8076 1.99219C18.5981 1.67103 17.3221 1.5 16 1.5C7.91426 1.50002 1.5 7.91424 1.5 16C1.5 24.0858 7.91426 30.5 16 30.5C24.0857 30.5 30.5 24.0858 30.5 16C30.5 14.6779 30.329 13.4019 30.0078 12.1924C29.9015 11.792 30.1397 11.3817 30.54 11.2754C30.9404 11.1691 31.3507 11.4073 31.457 11.8076C31.8115 13.1426 32 14.5478 32 16C32 24.9142 24.9142 32 16 32C7.08584 32 4.04299e-06 24.9142 0 16C0 7.0858 7.08584 1.71829e-05 16 0ZM20.8311 20.6611C21.0173 20.2933 21.4657 20.1447 21.835 20.3291C22.2053 20.5143 22.3558 20.9646 22.1709 21.335L21.5957 21.0479C22.1558 21.3279 22.1707 21.3354 22.1709 21.3359L22.1699 21.3369L22.167 21.3428C22.1653 21.3461 22.1626 21.3507 22.1602 21.3555C22.1552 21.365 22.1487 21.3777 22.1406 21.3926C22.1243 21.4225 22.1017 21.4632 22.0723 21.5127C22.0132 21.6119 21.9272 21.748 21.8115 21.9082C21.5805 22.228 21.2287 22.649 20.7383 23.0693C19.7493 23.917 18.206 24.75 16 24.75C13.794 24.75 12.2507 23.917 11.2617 23.0693C10.7713 22.649 10.4195 22.228 10.1885 21.9082C10.0728 21.748 9.98678 21.6119 9.92773 21.5127C9.89829 21.4632 9.87569 21.4225 9.85938 21.3926C9.85127 21.3777 9.84481 21.365 9.83984 21.3555C9.83735 21.3507 9.83471 21.3461 9.83301 21.3428L9.83008 21.3369L9.8291 21.3359C9.82931 21.3354 9.84423 21.3279 10.4043 21.0479L9.8291 21.335C9.64416 20.9646 9.79469 20.5143 10.165 20.3291C10.5343 20.1447 10.9827 20.2933 11.1689 20.6611V20.6621C11.1693 20.6627 11.1693 20.6639 11.1699 20.665H11.1709C11.1721 20.6674 11.1744 20.6705 11.1768 20.6748C11.1843 20.6887 11.1975 20.7128 11.2168 20.7451C11.2554 20.81 11.3179 20.9083 11.4053 21.0293C11.5805 21.2719 11.8538 21.6011 12.2383 21.9307C12.9993 22.5829 14.2061 23.25 16 23.25C17.7939 23.25 19.0007 22.5829 19.7617 21.9307C20.1462 21.6011 20.4195 21.2719 20.5947 21.0293C20.6821 20.9083 20.7446 20.81 20.7832 20.7451C20.8025 20.7128 20.8157 20.6887 20.8232 20.6748C20.8253 20.6709 20.8279 20.6683 20.8291 20.666V20.665C20.8298 20.6637 20.8307 20.6628 20.8311 20.6621V20.6611ZM20.8291 20.665V20.6641L20.8301 20.6621L20.8311 20.6611C20.8305 20.6623 20.8297 20.6639 20.8291 20.665ZM9.375 13.4004C10.1344 13.4004 10.75 14.016 10.75 14.7754C10.7498 15.5346 10.1343 16.1504 9.375 16.1504C8.61574 16.1504 8.00021 15.5346 8 14.7754C8 14.016 8.61561 13.4004 9.375 13.4004ZM22.625 13.4004C23.3844 13.4004 24 14.016 24 14.7754C23.9998 15.5346 23.3843 16.1504 22.625 16.1504C21.8657 16.1504 21.2502 15.5346 21.25 14.7754C21.25 14.016 21.8656 13.4004 22.625 13.4004ZM27.25 0C27.6642 0 28 0.335787 28 0.75V4H31.25C31.6642 4 32 4.33579 32 4.75C32 5.16421 31.6642 5.5 31.25 5.5H28V8.75C28 9.16421 27.6642 9.5 27.25 9.5C26.8358 9.5 26.5 9.16421 26.5 8.75V5.5H23.25C22.8358 5.5 22.5 5.16421 22.5 4.75C22.5 4.33579 22.8358 4 23.25 4H26.5V0.75C26.5 0.335787 26.8358 5.15409e-07 27.25 0Z"
    fill="currentColor"
  />
</svg>

<svg xmlns="http://www.w3.org/2000/svg" width="32" height="32" fill="none" data-fui-icon="true" viewBox="0 0 32 32"><path fill="currentColor" d="M16 0c1.452 0 2.857.189 4.192.543a.75.75 0 1 1-.384 1.45A14.8 14.8 0 0 0 16 1.5C7.914 1.5 1.5 7.914 1.5 16S7.914 30.5 16 30.5 30.5 24.086 30.5 16c0-1.322-.171-2.598-.492-3.808a.75.75 0 1 1 1.449-.384c.354 1.335.543 2.74.543 4.192 0 8.914-7.086 16-16 16S0 24.914 0 16 7.086 0 16 0m4.831 20.661a.75.75 0 0 1 1.34.674l-.575-.287.575.288h-.001l-.003.007-.007.012-.02.038q-.023.045-.068.12c-.059.099-.145.235-.26.395-.232.32-.583.741-1.074 1.161-.989.848-2.532 1.681-4.738 1.681s-3.75-.833-4.738-1.68a6.7 6.7 0 0 1-1.074-1.162 5 5 0 0 1-.329-.515l-.02-.038-.006-.012-.003-.006v-.001l.574-.288-.575.287a.75.75 0 0 1 1.34-.674v.004h.002l.006.01q.01.021.04.07c.038.065.1.163.188.284.176.243.449.572.833.902.761.652 1.968 1.319 3.762 1.319s3-.667 3.762-1.32c.384-.329.657-.658.833-.9a4 4 0 0 0 .228-.355l.006-.009v-.001l.002-.003m-.002.004.001-.003h.001zM9.375 13.4a1.375 1.375 0 1 1 0 2.75 1.375 1.375 0 0 1 0-2.75m13.25 0a1.375 1.375 0 1 1 0 2.75 1.375 1.375 0 0 1 0-2.75M27.25 0a.75.75 0 0 1 .75.75V4h3.25a.75.75 0 0 1 0 1.5H28v3.25a.75.75 0 0 1-1.5 0V5.5h-3.25a.75.75 0 0 1 0-1.5h3.25V.75a.75.75 0 0 1 .75-.75"/></svg>
